X:207
T: ALLES STILL IN SUESSER RUH
N: F0354
O: Europa, Mitteleuropa, Deutschland
R: Jugend - Lied, Wiegen - Lied
M: 3/4
L: 1/4
K: E
 | BGA | B2G | A2F | G3
edc | B2c | A2B | G3
G2G | c2c | dcd | e3
eG^A | B2G | AGF | E2z

